X:1
T:I'm Putting All My Eggs In One Basket
T:I'm Putting All My Eggs In One Basket
C:Irving Berlin
Z:All Rights Reserved
L:1/8
M:4/4
K:C
V:1 treble nm="Piano" snm="Pno."
%%MIDI program 0
%%MIDI control 7 100
%%MIDI control 10 64
V:1
"C" GGGA-"C6/G" A A3 |"G+/C" B B2"C6/G" A- A3 E |"C" A A2 A-"C6/G" AA A2 | %3
w: I've benn a roam- * ing|Ro- me- o, _ my|Ju- li- ets _ have been|
"Cmaj7" e3 B-"Ebdim7" B4 |"Dm" z2 A2 A2 A2 |"G7" A G2"G+7" G- G2 A2 |"C9""Am7" E8- |"Dm9""G7" E8 | %8
w: man- y. _|But now my|roam- ing days _ are|gone.|_|
"C" GGGA-"C6/G" A A3 |"G+/C" B B2"C6/G" A- A3 ^A |"E" B B2"C#m/B" ^c- cc c2 | %11
w: Too man- y i- * rons|in the fire _ is|worse than not _ hav- ing|
"Em" ^d3 ^c-"C#m/B" c4 |"D7/A" z2 =d2"G#dim7" d2 d2 |"Am" d c2 B-"D7" B2 A2 |"G7""G7b5" G8- | %15
w: an- y. _|I've had my|share and from _ now|on|
"G7" G8 |:"C" G4"F/G" c"G7" d2 e- |"C" e e2 e-"Cmaj7" e- e2 d- |"C9" d8 |"F" c2"Dm7b5" F6 | %20
w: _|I'm put- ting all|_ my eggs _ in one.|_|bask- et.|
"C/G" z2 G2 G2 GG- | G>eG>^F"G7" =F d2 c- |"C""Am" c8 |"Dm""G7" z8 |"C" G4"F/G" c"G7" d2 e- | %25
w: I'm bet- ting ev-|* 'ry- thing I've got on you.|_||I'm giv- ing all|
"C" e e2 e-"Cmaj7" e- e2 d- |"C9" d8 |"F6" c2"Dm7b5" F6 |"C/G" z2 G2 G2 GG- | %29
w: _ my love _ to one|_|ba- by.|Lord help me if|
 G>eG>^F"G7" =F d2 c- |"C""Dm/G" c8- |"C" c2 c2"Bdim7" d"C/Bb" e2 f- |"F" f4"F/C" c A2 F- | %33
w: _ my ba- by don't come thru.|_|* I've got a great|_ big a- mount|
"F" F4"F/C" (3A2 c2 f2 |"Ab" _e4"Ab/Eb" c _A2 _E- |"Ab" E4 (3_A2"Adim7" c2 _e2 | %36
w: _ saved up in|my love ac- count,|_ hon- ey and|
"Eb7/Bb" _d d2 _B-"Eb7" B G3 |"Eb7/Bb" _E2 EF-"Eb7" FE F2 |"G7/D" G6"G7b9" ^G2 | %39
w: I've de- ci- * ded|love di- vi- * ded in|two won't|
"G9/D" A6"G+7" _A2 |"C" G4"F/G" c"G7" d2 e- |"C" e e2 e-"Cmaj7" e e2 d- |"C9" d8 | %43
w: do. So|I'm put- tin all|_ my eggs _ in one|_|
"F" c2"Dm7b5" F6 |"C/G" z2 G2 G2 GG- | G>eG>^F"G7" =F d2 c- |1"C""Am" c8 |"Dm""G7" z8 :|2 %48
w: bas- ket.|I'm bet- ting ev-|* 'ry- thing I've got on you.|_||
"C""Dm7/G" c8- |"C6" c6 z2 |] %50
w: (you)|_|

